X: 27354
T: Mistral
R: jig
M: 6/8
K: Edorian
E2B AFE|AFB AFB|AFE D2E|F2A BAF|
E2B AFE|AFB AFE|DFA dAF|1 GFD EGF:|2 GFD EBd||
|:efa afe|fdB ABd|efa baf|afd eBd|
[1 eff afe|fdd edc|d2A BAF|GFD EBd:|
[2 eff afe|fdB ABd|edc dAF|GFD EGF||
K:Ador
|:GAB cBA|BGG GED|EAA GBd|edB AGE|
A2B c2A|BGG GED|EAA GBd|1 edB A3:|2 edB Aef||
|:g3 ged|ecB cAA|eaa bag|efg a2f|
g3 ged|eAB c2d|edc BAG|1 EAG Aef:|2 EAG A3||

